assets/images/icons/instagram.svg

<svg width="16" height="15" viewBox="0 0 16 15" fill="none" xmlns="http://www.w3.org/2000/svg">
<g clip-path="url(#clip0)">
<path d="M8.3145 4.92627C6.94763 4.92627 5.83936 6.03454 5.83936 7.40141C5.83936 8.76828 6.94763 9.87656 8.3145 9.87656C9.68137 9.87656 10.7896 8.76828 10.7896 7.40141C10.7896 6.03454 9.68137 4.92627 8.3145 4.92627Z" fill="#543018"/>
<path d="M10.9002 0.0498047H5.7283C3.10539 0.0498047 0.925781 2.22941 0.925781 4.85232V9.98732C0.925781 12.6472 3.10539 14.7898 5.7283 14.7898H10.8633C13.5232 14.7898 15.6658 12.6102 15.6658 9.98732V4.85232C15.7028 2.22941 13.5232 0.0498047 10.9002 0.0498047ZM8.31427 11.2803C6.20855 11.2803 4.47226 9.58095 4.47226 7.43829C4.47226 5.29563 6.20855 3.59628 8.31427 3.59628C10.42 3.59628 12.1563 5.29563 12.1563 7.43829C12.1563 9.54401 10.4569 11.2803 8.31427 11.2803ZM12.0824 4.51984C11.5652 4.51984 11.1588 4.07653 11.1588 3.59628C11.1588 3.11603 11.6021 2.63578 12.0824 2.63578C12.5996 2.63578 13.006 3.07908 13.006 3.55934C13.006 4.11347 12.5996 4.51984 12.0824 4.51984Z" fill="#543018"/>
</g>
<defs>
<clipPath id="clip0">
<rect x="0.925781" y="0.0498047" width="14.777" height="14.777" fill="white"/>
</clipPath>
</defs>
</svg>

<svg width="16" height="15" fill="none" xmlns="http://www.w3.org/2000/svg"><g clip-path="url(#clip0)" fill="#543018"><path d="M8.315 4.926a2.475 2.475 0 100 4.95 2.475 2.475 0 000-4.95z"/><path d="M10.9.05H5.728C3.105.05.926 2.23.926 4.852v5.135c0 2.66 2.18 4.803 4.802 4.803h5.135c2.66 0 4.803-2.18 4.803-4.803V4.852C15.703 2.23 13.523.05 10.9.05zM8.314 11.28a3.839 3.839 0 01-3.842-3.842 3.839 3.839 0 013.842-3.842 3.84 3.84 0 013.842 3.842 3.84 3.84 0 01-3.842 3.842zm3.768-6.76a.938.938 0 01-.923-.924c0-.48.443-.96.923-.96.518 0 .924.443.924.923 0 .554-.406.96-.924.96z"/></g><defs><clipPath id="clip0"><path fill="#fff" d="M.926.05h14.777v14.777H.926z"/></clipPath></defs></svg>
